X:9
T:Two Plus Two
R:reel
C:Henrik Norbeck
H:August 1991
M:C|
K:Ador
~A,3B, CDEG|Aedc BG~G2|B,D~D2 EDGA|BedB eBdB|
Aedc BG~G2|EB,DB, G,A,B,D|EFGE DEGA|BedB ~A3z:|
|:ea~a2 bac'a|eage dB~B2|GB~B2 dBde|gabg aged|
[1 eaab c'2ba|gbag eBdB|GABd efed|BedB ~A3z:|
[2 ea~a2 bc'ba|gede gedB|GABd efed|BedB ~A3z||

